Numix/16/status/indicator-keyboard-Sr-3.svg

<?xml version="1.0" encoding="UTF-8" standalone="no"?>
<svg
   xmlns:dc="http://purl.org/dc/elements/1.1/"
   xmlns:cc="http://creativecommons.org/ns#"
   xmlns:rdf="http://www.w3.org/1999/02/22-rdf-syntax-ns#"
   xmlns:svg="http://www.w3.org/2000/svg"
   xmlns="http://www.w3.org/2000/svg"
   xmlns:sodipodi="http://sodipodi.sourceforge.net/DTD/sodipodi-0.dtd"
   xmlns:inkscape="http://www.inkscape.org/namespaces/inkscape"
   viewBox="0 0 16 16"
   id="svg2"
   version="1.1"
   inkscape:version="0.91 r13725"
   sodipodi:docname="indicator-keyboard-Sr-3.svg">
  <metadata
     id="metadata14">
    <rdf:RDF>
      <cc:Work
         rdf:about="">
        <dc:format>image/svg+xml</dc:format>
        <dc:type
           rdf:resource="http://purl.org/dc/dcmitype/StillImage" />
      </cc:Work>
    </rdf:RDF>
  </metadata>
  <defs
     id="defs12" />
  <sodipodi:namedview
     pagecolor="#ffffff"
     bordercolor="#666666"
     borderopacity="1"
     objecttolerance="10"
     gridtolerance="10"
     guidetolerance="10"
     inkscape:pageopacity="0"
     inkscape:pageshadow="2"
     inkscape:window-width="640"
     inkscape:window-height="480"
     id="namedview10"
     showgrid="false"
     inkscape:zoom="14.75"
     inkscape:cx="8"
     inkscape:cy="8"
     inkscape:window-x="65"
     inkscape:window-y="24"
     inkscape:window-maximized="0"
     inkscape:current-layer="svg2" />
  <path
     style="fill:#ececec;fill-opacity:1"
     d="M 1.5996094 0 C 0.71320937 2.9605947e-16 0 0.71320937 0 1.5996094 L 0 14.400391 C 2.9605947e-16 15.286791 0.71320937 16 1.5996094 16 L 14.400391 16 C 15.286791 16 16 15.286791 16 14.400391 L 16 1.5996094 C 16 0.71320937 15.286791 0 14.400391 0 L 1.5996094 0 z M 4.9140625 4.7246094 C 5.0820625 4.7246094 5.2462031 4.7357656 5.4082031 4.7597656 C 5.5702031 4.7837656 5.7194219 4.817375 5.8574219 4.859375 C 6.0014219 4.895375 6.1320938 4.936375 6.2460938 4.984375 C 6.3660937 5.032375 6.4649688 5.0846719 6.5429688 5.1386719 L 6.3261719 5.6503906 C 6.1521719 5.5303906 5.9395 5.4352813 5.6875 5.3632812 C 5.4415 5.2912813 5.1747187 5.2558594 4.8867188 5.2558594 C 4.6887187 5.2558594 4.5058906 5.2763594 4.3378906 5.3183594 C 4.1758906 5.3543594 4.0340625 5.4178125 3.9140625 5.5078125 C 3.7940625 5.5918125 3.6989531 5.6980781 3.6269531 5.8300781 C 3.5609531 5.9620781 3.5273438 6.1225938 3.5273438 6.3085938 C 3.5273438 6.5005938 3.5627656 6.6629219 3.6347656 6.7949219 C 3.7067656 6.9269219 3.8056406 7.0407187 3.9316406 7.1367188 C 4.0636406 7.2327187 4.216625 7.3184844 4.390625 7.3964844 C 4.564625 7.4744844 4.7549844 7.556625 4.9589844 7.640625 C 5.2049844 7.742625 5.4343906 7.8433125 5.6503906 7.9453125 C 5.8723906 8.0473125 6.0645625 8.1686406 6.2265625 8.3066406 C 6.3885625 8.4446406 6.5192344 8.6125469 6.6152344 8.8105469 C 6.7112344 9.0085469 6.7578125 9.2510625 6.7578125 9.5390625 C 6.7578125 10.103063 6.5600625 10.526594 6.1640625 10.808594 C 5.7740625 11.090594 5.2442656 11.230469 4.5722656 11.230469 C 4.3322656 11.230469 4.1120625 11.215547 3.9140625 11.185547 C 3.7160625 11.155547 3.5388125 11.120125 3.3828125 11.078125 C 3.2268125 11.030125 3.0962813 10.981594 2.9882812 10.933594 C 2.8802813 10.885594 2.794375 10.844594 2.734375 10.808594 L 2.9335938 10.277344 C 2.9935938 10.313344 3.0737812 10.354344 3.1757812 10.402344 C 3.2777812 10.450344 3.3991094 10.498875 3.5371094 10.546875 C 3.6751094 10.588875 3.8299063 10.624297 4.0039062 10.654297 C 4.1779062 10.684297 4.3700781 10.699219 4.5800781 10.699219 C 5.0660781 10.699219 5.4448437 10.613453 5.7148438 10.439453 C 5.9848438 10.259453 6.1191406 9.970219 6.1191406 9.5742188 C 6.1191406 9.3462187 6.074375 9.1578125 5.984375 9.0078125 C 5.900375 8.8518125 5.7865781 8.7230938 5.6425781 8.6210938 C 5.4985781 8.5130937 5.3324844 8.4235625 5.1464844 8.3515625 C 4.9604844 8.2735625 4.7665 8.1914219 4.5625 8.1074219 C 4.3045 8.0054219 4.0731406 7.9009687 3.8691406 7.7929688 C 3.6651406 7.6849688 3.4916562 7.5655937 3.3476562 7.4335938 C 3.2036562 7.2955937 3.0916719 7.1388438 3.0136719 6.9648438 C 2.9416719 6.7908437 2.90625 6.5875156 2.90625 6.3535156 C 2.90625 5.8195156 3.0835 5.4146719 3.4375 5.1386719 C 3.7915 4.8626719 4.2840625 4.7246094 4.9140625 4.7246094 z M 9.4453125 6.3535156 C 9.6373125 6.3535156 9.8183281 6.3684375 9.9863281 6.3984375 C 10.160328 6.4284375 10.279703 6.4582813 10.345703 6.4882812 L 10.228516 6.9921875 C 10.180516 6.9681875 10.08164 6.9439219 9.9316406 6.9199219 C 9.7876406 6.8899219 9.5954688 6.875 9.3554688 6.875 C 9.1034687 6.875 8.9001406 6.8936875 8.7441406 6.9296875 C 8.5941406 6.9656875 8.4952656 6.9955312 8.4472656 7.0195312 L 8.4472656 11.095703 L 7.8613281 11.095703 L 7.8613281 6.6582031 C 8.0113281 6.5922031 8.2184219 6.5269375 8.4824219 6.4609375 C 8.7464219 6.3889375 9.0673125 6.3535156 9.4453125 6.3535156 z M 11.896484 8.7539062 C 12.099284 8.7539062 12.271716 8.7793781 12.416016 8.8300781 C 12.564216 8.8807781 12.687656 8.953275 12.785156 9.046875 C 12.882656 9.136575 12.955153 9.2463 13.001953 9.375 C 13.048753 9.4997999 13.072266 9.6350031 13.072266 9.7832031 C 13.072266 10.021103 13.007606 10.217041 12.878906 10.369141 C 12.754106 10.517341 12.591478 10.625106 12.392578 10.691406 C 12.501778 10.718706 12.607584 10.759859 12.708984 10.818359 C 12.814284 10.872959 12.908334 10.945456 12.990234 11.035156 C 13.072134 11.120956 13.138753 11.226762 13.189453 11.351562 C 13.240153 11.476363 13.265625 11.623316 13.265625 11.791016 C 13.265625 11.962616 13.234275 12.119372 13.171875 12.263672 C 13.113375 12.407972 13.023244 12.535331 12.902344 12.644531 C 12.785344 12.749831 12.634472 12.834084 12.451172 12.896484 C 12.267872 12.954984 12.054294 12.984375 11.808594 12.984375 C 11.679894 12.984375 11.560372 12.974578 11.451172 12.955078 C 11.345872 12.939478 11.251822 12.919884 11.169922 12.896484 C 11.088022 12.873084 11.017484 12.849572 10.958984 12.826172 C 10.904384 12.802772 10.863237 12.783178 10.835938 12.767578 L 10.935547 12.427734 C 10.958947 12.443334 10.998134 12.462928 11.052734 12.486328 C 11.107334 12.509728 11.171994 12.533241 11.246094 12.556641 C 11.324094 12.576141 11.410306 12.593775 11.503906 12.609375 C 11.601406 12.624975 11.707213 12.632813 11.820312 12.632812 C 12.190812 12.632812 12.455334 12.556397 12.615234 12.404297 C 12.775134 12.248297 12.855469 12.040597 12.855469 11.779297 C 12.855469 11.607697 12.822159 11.464662 12.755859 11.351562 C 12.693459 11.238462 12.605288 11.148331 12.492188 11.082031 C 12.382988 11.011831 12.253669 10.962847 12.105469 10.935547 C 11.961169 10.904347 11.808331 10.888672 11.644531 10.888672 L 11.585938 10.888672 L 11.585938 10.574219 L 11.720703 10.574219 C 11.826003 10.574219 11.933769 10.564422 12.042969 10.544922 C 12.156069 10.521522 12.256003 10.480375 12.345703 10.421875 C 12.439303 10.363375 12.515719 10.285 12.574219 10.1875 C 12.636619 10.09 12.667969 9.9646001 12.667969 9.8125 C 12.667969 9.6838 12.646416 9.5760281 12.603516 9.4863281 C 12.560616 9.3927281 12.501834 9.3182719 12.427734 9.2636719 C 12.357534 9.2090719 12.273281 9.1698844 12.175781 9.1464844 C 12.082181 9.1191844 11.984206 9.1054687 11.878906 9.1054688 C 11.668306 9.1054688 11.503719 9.1348594 11.386719 9.1933594 C 11.269719 9.2518594 11.173709 9.3067219 11.099609 9.3574219 L 10.935547 9.0585938 C 10.974547 9.0312937 11.023531 8.9999437 11.082031 8.9648438 C 11.144431 8.9297437 11.216928 8.8964344 11.298828 8.8652344 C 11.380728 8.8340344 11.470859 8.8085625 11.568359 8.7890625 C 11.669759 8.7656625 11.779484 8.7539062 11.896484 8.7539062 z "
     id="path4" />
</svg>

<svg xmlns="http://www.w3.org/2000/svg" viewBox="0 0 16 16">
 <path d="m 1.6 0 c -0.886 0 -1.6 0.713 -1.6 1.6 l 0 12.801 c 0 0.886 0.713 1.6 1.6 1.6 l 12.801 0 c 0.886 0 1.6 -0.713 1.6 -1.6 l 0 -12.801 c 0 -0.886 -0.713 -1.6 -1.6 -1.6 l -12.801 0 z m 3.314 4.725 c 0.168 0 0.332 0.011 0.494 0.035 c 0.162 0.024 0.311 0.058 0.449 0.1 c 0.144 0.036 0.275 0.077 0.389 0.125 c 0.12 0.048 0.219 0.1 0.297 0.154 l -0.217 0.512 c -0.174 -0.12 -0.387 -0.215 -0.639 -0.287 c -0.246 -0.072 -0.513 -0.107 -0.801 -0.107 c -0.198 0 -0.381 0.02 -0.549 0.063 c -0.162 0.036 -0.304 0.099 -0.424 0.189 c -0.12 0.084 -0.215 0.19 -0.287 0.322 c -0.066 0.132 -0.1 0.293 -0.1 0.479 c 0 0.192 0.035 0.354 0.107 0.486 c 0.072 0.132 0.171 0.246 0.297 0.342 c 0.132 0.096 0.285 0.182 0.459 0.26 c 0.174 0.078 0.364 0.16 0.568 0.244 c 0.246 0.102 0.475 0.203 0.691 0.305 c 0.222 0.102 0.414 0.223 0.576 0.361 c 0.162 0.138 0.293 0.306 0.389 0.504 c 0.096 0.198 0.143 0.441 0.143 0.729 c 0 0.564 -0.198 0.988 -0.594 1.27 c -0.39 0.282 -0.92 0.422 -1.592 0.422 c -0.24 0 -0.46 -0.015 -0.658 -0.045 c -0.198 -0.03 -0.375 -0.065 -0.531 -0.107 c -0.156 -0.048 -0.287 -0.097 -0.395 -0.145 c -0.108 -0.048 -0.194 -0.089 -0.254 -0.125 l 0.199 -0.531 c 0.06 0.036 0.14 0.077 0.242 0.125 c 0.102 0.048 0.223 0.097 0.361 0.145 c 0.138 0.042 0.293 0.077 0.467 0.107 c 0.174 0.03 0.366 0.045 0.576 0.045 c 0.486 0 0.865 -0.086 1.135 -0.26 c 0.27 -0.18 0.404 -0.469 0.404 -0.865 c 0 -0.228 -0.045 -0.416 -0.135 -0.566 c -0.084 -0.156 -0.198 -0.285 -0.342 -0.387 c -0.144 -0.108 -0.31 -0.198 -0.496 -0.27 c -0.186 -0.078 -0.38 -0.16 -0.584 -0.244 c -0.258 -0.102 -0.489 -0.206 -0.693 -0.314 c -0.204 -0.108 -0.377 -0.227 -0.521 -0.359 c -0.144 -0.138 -0.256 -0.295 -0.334 -0.469 c -0.072 -0.174 -0.107 -0.377 -0.107 -0.611 c 0 -0.534 0.177 -0.939 0.531 -1.215 c 0.354 -0.276 0.847 -0.414 1.477 -0.414 z m 4.531 1.629 c 0.192 0 0.373 0.015 0.541 0.045 c 0.174 0.03 0.293 0.06 0.359 0.09 l -0.117 0.504 c -0.048 -0.024 -0.147 -0.048 -0.297 -0.072 c -0.144 -0.03 -0.336 -0.045 -0.576 -0.045 c -0.252 0 -0.455 0.019 -0.611 0.055 c -0.15 0.036 -0.249 0.066 -0.297 0.09 l 0 4.076 l -0.586 0 l 0 -4.437 c 0.15 -0.066 0.357 -0.131 0.621 -0.197 c 0.264 -0.072 0.585 -0.107 0.963 -0.107 z m 2.451 2.4 c 0.203 0 0.375 0.025 0.52 0.076 c 0.148 0.051 0.272 0.123 0.369 0.217 c 0.098 0.09 0.17 0.199 0.217 0.328 c 0.047 0.125 0.07 0.26 0.07 0.408 c 0 0.238 -0.065 0.434 -0.193 0.586 c -0.125 0.148 -0.287 0.256 -0.486 0.322 c 0.109 0.027 0.215 0.068 0.316 0.127 c 0.105 0.055 0.199 0.127 0.281 0.217 c 0.082 0.086 0.149 0.192 0.199 0.316 c 0.051 0.125 0.076 0.272 0.076 0.439 c 0 0.172 -0.031 0.328 -0.094 0.473 c -0.059 0.144 -0.149 0.272 -0.27 0.381 c -0.117 0.105 -0.268 0.19 -0.451 0.252 c -0.183 0.059 -0.397 0.088 -0.643 0.088 c -0.129 0 -0.248 -0.01 -0.357 -0.029 c -0.105 -0.016 -0.199 -0.035 -0.281 -0.059 c -0.082 -0.023 -0.152 -0.047 -0.211 -0.07 c -0.055 -0.023 -0.096 -0.043 -0.123 -0.059 l 0.1 -0.34 c 0.023 0.016 0.063 0.035 0.117 0.059 c 0.055 0.023 0.119 0.047 0.193 0.07 c 0.078 0.019 0.164 0.037 0.258 0.053 c 0.098 0.016 0.203 0.023 0.316 0.023 c 0.37 0 0.635 -0.076 0.795 -0.229 c 0.16 -0.156 0.24 -0.364 0.24 -0.625 c 0 -0.172 -0.033 -0.315 -0.1 -0.428 c -0.062 -0.113 -0.151 -0.203 -0.264 -0.27 c -0.109 -0.07 -0.239 -0.119 -0.387 -0.146 c -0.144 -0.031 -0.297 -0.047 -0.461 -0.047 l -0.059 0 l 0 -0.314 l 0.135 0 c 0.105 0 0.213 -0.01 0.322 -0.029 c 0.113 -0.023 0.213 -0.065 0.303 -0.123 c 0.094 -0.059 0.17 -0.137 0.229 -0.234 c 0.062 -0.098 0.094 -0.223 0.094 -0.375 c 0 -0.129 -0.022 -0.236 -0.064 -0.326 c -0.043 -0.094 -0.102 -0.168 -0.176 -0.223 c -0.07 -0.055 -0.154 -0.094 -0.252 -0.117 c -0.094 -0.027 -0.192 -0.041 -0.297 -0.041 c -0.211 0 -0.375 0.029 -0.492 0.088 c -0.117 0.059 -0.213 0.113 -0.287 0.164 l -0.164 -0.299 c 0.039 -0.027 0.088 -0.059 0.146 -0.094 c 0.062 -0.035 0.135 -0.068 0.217 -0.1 c 0.082 -0.031 0.172 -0.057 0.27 -0.076 c 0.101 -0.023 0.211 -0.035 0.328 -0.035 z" style="fill:#ececec;fill-opacity:1"/>
</svg>
